X:1
T: The Cat and the Bacon
C:
R:Jig
Q:180
K:D
M:6/8
L:1/16
G2|A2d2d2 A2d2d2|efe2d2 c4A2|A2d2d2 A2d2d2|efe2d2 c2A2G2|A2d2d2 A2d2d2|efe2d2 c4d2|e2c2A2 G4E2|F2D2D2 D4G2|
A2d2d2 A2d2d2|efe2d2 c4A2|A2d2d2 A2d2d2|efe2d2 c2A2G2|A2d2d2 A2d2d2|efe2d2 c4d2|e2c2A2 G4E2|F2D2D2 D4fg|
a2b2a2 g2a2g2|f2e2d2 e2c2A2|A2cBA2 c4d2|c2A2d2 c2A2G2|A2d2d2 A2d2d2|efe2d2 c4d2|e2a2a2 g2e2c2|e2d2d2 d4fg|
a2b2a2 g2a2g2|f2e2d2 e2c2A2|A2cBA2 c4d2|c2A2d2 c2A2G2|A2d2d2 A2d2d2|efe2d2 c4d2|e2a2a2 g2e2c2|e2d2d2 d4||
